X:18
T:Lucy Locket
%%score 1 { 2 | ( 3 4 ) }
L:1/8
Q:1/4=90
M:4/4
I:linebreak $
K:G
V:1 treble nm="Violin"
V:2 treble nm="Piano"
V:3 bass 
V:4 bass 
V:1
GGAB GBAD | GGAB G2 F2 |$ GGAB cBAG | FDEF G2 G z/ G/ |$ GGAB GBAD | GGAB G2 F z/ G/ |$ 
w: Lu- cy Lock- et lost her pock- et,|Kit- ty Fish- er found it,|There was not a pen- ny in it,|on- ly rib- bon 'round it. I|wrote a let- ter to my love and|on my way I dropped it, A|
GGAB cBAG | FDEF G2 G2 |] 
w: lit- tle dog- gie picked it up and|put it in his pock- et.|
V:2
[DG]G[DA]B [DG]B[DA]D | [DG]G[DA]B [DG]2 [DF]2 |$ [DG]G[DA]B [Dc]BAG | [DF]D[CE]F [B,G]2 [B,G]2 |$ 
[DG]G[DA]B [DG]B[DA]D | [DG]G[DA]B [DG]2 [DF]2 |$ [DG]G[DA]B [Dc]BAG | [DF]D[CE]F [B,G]2 [B,G]2 |] 
V:3
B,G,F,G, B,G,F,C | B,G,F,G, B,G, A,2 |$ B,G,F,G, A,DCB, | A,F,G, z [G,,D,G,]2 [G,,D,G,]2 |$ 
B,G,F,G, B,G,F,C | B,G,F,G, B,G, A,2 |$ B,G,F,G, A,DCB, | A,F,G, z [G,,D,G,]2 [G,,D,G,]2 |] 
V:4
D,4 D,4 | D,4 D,4 |$ D,4 D,4 | D,2 C,A,, x4 |$ D,4 D,4 | D,4 D,4 |$ D,4 D,4 | D,2 C,A,, x4 |] 



